images/privat_check_mark.svg

<svg width="8" height="7" viewBox="0 0 8 7" fill="none" xmlns="http://www.w3.org/2000/svg">
<path d="M7.85743 1.78534L7.15248 1.09312C7.05743 0.999791 6.93861 0.953125 6.80396 0.953125C6.66931 0.953125 6.5505 0.999791 6.45545 1.09312L3.06535 4.42198L1.55248 2.92866C1.45743 2.83533 1.33861 2.78866 1.20396 2.78866C1.06931 2.78866 0.950495 2.83533 0.855446 2.92866L0.150495 3.62088C0.0475248 3.71421 0 3.83088 0 3.9631C0 4.09532 0.0475247 4.21199 0.142574 4.30532L2.01188 6.14086L2.71683 6.83307C2.81188 6.92641 2.93069 6.97307 3.06535 6.97307C3.2 6.97307 3.31881 6.92641 3.41386 6.83307L4.11881 6.14086L7.85743 2.46978C7.95248 2.37645 8 2.25978 8 2.12756C8 1.99534 7.95248 1.87867 7.85743 1.78534Z" fill="white"/>
</svg>

<svg width="8" height="7" fill="none" xmlns="http://www.w3.org/2000/svg"><path d="m7.857 1.785-.705-.692a.483.483 0 0 0-.348-.14.483.483 0 0 0-.349.14l-3.39 3.329-1.513-1.493a.483.483 0 0 0-.348-.14.483.483 0 0 0-.349.14L.15 3.62a.444.444 0 0 0-.15.342c0 .132.048.249.143.342l1.869 1.836.705.692c.095.093.214.14.348.14a.483.483 0 0 0 .349-.14l.705-.692L7.857 2.47A.465.465 0 0 0 8 2.128a.465.465 0 0 0-.143-.343Z" fill="#fff"/></svg>
